src/svg/chevron-right-outline.svg

<svg version="1.2" baseProfile="tiny" xmlns="http://www.w3.org/2000/svg" width="24" height="24" viewBox="0 0 24 24"><path d="M10 20c-.802 0-1.555-.312-2.122-.879-.566-.566-.878-1.32-.878-2.121s.312-1.555.879-2.122l2.878-2.878-2.878-2.879c-.567-.566-.879-1.32-.879-2.121s.312-1.555.879-2.122c1.133-1.132 3.109-1.133 4.243.001l7.121 7.121-7.122 7.121c-.566.567-1.319.879-2.121.879zm0-14c-.268 0-.518.104-.707.292-.189.19-.293.441-.293.708s.104.518.293.707l4.292 4.293-4.292 4.293c-.189.189-.293.439-.293.707s.104.518.293.707c.378.379 1.037.378 1.414.001l5.708-5.708-5.708-5.707c-.189-.189-.439-.293-.707-.293z"/></svg>

<?xml version="1.0" encoding="iso-8859-1"?>
<!-- Generator: Adobe Illustrator 16.2.1, SVG Export Plug-In . SVG Version: 6.00 Build 0)  -->
<svg version="1.2" baseProfile="tiny" id="Layer_1" xmlns="http://www.w3.org/2000/svg" xmlns:xlink="http://www.w3.org/1999/xlink"
	 x="0px" y="0px" width="24px" height="24px" viewBox="0 0 24 24" xml:space="preserve">
<g>
	<g>
		<path d="M10,20c-0.802,0-1.555-0.312-2.122-0.879C7.312,18.555,7,17.801,7,17s0.312-1.555,0.879-2.122L10.757,12L7.879,9.121
			C7.312,8.555,7,7.801,7,7s0.312-1.555,0.879-2.122c1.133-1.132,3.109-1.133,4.243,0.001L19.243,12l-7.122,7.121
			C11.555,19.688,10.802,20,10,20z M10,6C9.732,6,9.482,6.104,9.293,6.292C9.104,6.482,9,6.733,9,7s0.104,0.518,0.293,0.707
			L13.585,12l-4.292,4.293C9.104,16.482,9,16.732,9,17s0.104,0.518,0.293,0.707c0.378,0.379,1.037,0.378,1.414,0.001L16.415,12
			l-5.708-5.707C10.518,6.104,10.268,6,10,6z"/>
	</g>
</g>
</svg>
